X: 28
T:Merch Megan
% Nottingham Music Database
Y:AAB
S:JP/AF 85
M:3/4
L:1/4
K:G
P:A
d/2c/2|"G"BGG|"C"e2d|"Am"cBA/2G/2|"D7"FDd/2c/2|"G"BGG|"C"e2d|\
"D7"cBA|"G"G2:|
P:B
d|"G"gg/2a/2g/2a/2|"D"ff/2g/2f/2g/2|"A7"ee/2f/2g/2e/2|"D"fdd|
"G"gg/2a/2b/2g/2|"D"ff/2g/2a/2f/2|"Em"e/2b/2a/2g/2"A7"f/2e/2|"D7"d2d/2c/2|"G"BGG|
"C"e2d|"Am"cBA/2G/2|"D7"FDd/2c/2|"G"BGG|"C"e2d|"D7"cBA|"G"G2||


